X:1
T:Title
%%score ( 1 2 ) { 3 | 4 }
L:1/8
Q:1/4=105
M:4/4
K:F
V:1 treble nm="Grand Piano, Soprano"
V:2 treble 
V:3 bass nm="Choir Pad, When We Get Home (Hood)"
V:4 bass 
V:1
 [FA][FB] [Fc]2 [Fd]2 [Fc]2 | [FA][CG] [DF]2 [DG]2 [DF]2 | F[EG] [FA]2 [Fc]2 [Fd][Fc] | %3
w: By~R.~Edwin~Perry * * * *|||
 [GB][FA] [EG]6 | [FA][FB] [Fc]2 [Fd]2 [Fc]2 | [FA][CG] [DF]2 [DG]2 [DF]2 | %6
w: |||
 F[EG][FA][Fc] [Fc][GB] [FA]2 | [EG]2 F6 | z2 c4 c2- | c2 c6 | z2 d2 z4 | z2 d2 z4 | %12
w: ||||||
 [Gc]2 [Ff]2 [Fe]2 [Fd]2 | z2 .d2 z4 | [CF]2 [B,D]2 [DG]2 [CF]2 | [CE]2 [CF]6- | [CF]2 z2 z4 |] %17
w: |||||
V:2
 x8 | x8 | x8 | x8 | x8 | x8 | x8 | x8 | [Fc]2 E2 F2 G2 | E2 F2 G2 A2 | [Fc]2 F2- [F-e]2 [Ff]2 | %11
 [Fd]2 F2- [F-c]2 [Fc]2 | x8 | [Ec]2 F-[Fc] [Fc]2 [FA]2 | x8 | x8 | x8 |] %17
V:3
 F,G, A,2 B,2 A,2 | CA, B,2 B,2 B,2 | CC C2 A,2 B,A, | CC C6 | F,G, A,2 B,2 A,2 | CA, B,2 B,2 B,2 | %6
 CCCA, A,D C2 | B,2 A,6 | A,2 G,2 A,2 B,2 | G,2 A,2 B,2 C2 | A,2 B,2 C2 D2 | B,2 B,2 A,2 A,2 | %12
 C2 A,2 C2 B,2 | G,2 B,A, A,2 C2 | F,2 F,2 B,2 A,2 | G,2 A,6- | A,2 z2 z4 |] %17
V:4
 z F, F,2 F,2 F,2 | F,F, B,,2 B,,2 B,,2 | A,,C, F,2 F,2 F,F, | E,F, C,6 | z F, F,2 F,2 F,2 | %5
 F,F, B,,2 B,,2 B,,2 | A,,C,F,F, F,B,, C,2 | C,2 F,6 | F,2 C,6 | C,2 F,6 | F,2 B,,6 | B,,2 F,6 | %12
 E,2 D,2 A,,2 B,,2 | C,2 F,2 F,2 F,2 | A,,2 B,,2 G,,2 C,2 | C,2 F,6- | F,2 z2 z4 |] %17

